; generated by PrusaSlicer 2.7.1+win64 on 2024-02-23 at 22:18:29 UTC


;
;

;
;
; TODO: check the size of the extruder and the y-bar clearance. Optimize & test supports.

; external perimeters extrusion width = 0.42mm
; perimeters extrusion width = 0.44mm
; infill extrusion width = 0.44mm
; solid infill extrusion width = 0.44mm
; top infill extrusion width = 0.44mm
; first layer extrusion width = 0.60mm


; printing object Shape-Box id:0 copy 0
; stop printing object Shape-Box id:0 copy 0

;TYPE:Custom
M104 S250 T0
M140 S85 ; set bed temp
M190 S85 ; wait for bed temp
G4 P60000 ; wait for temp stabilisation
start_print 
T0
G90
M109 S250 T0
brush_T0
G1 Z5.0 F3000 
G1 X100 Y1.0 Z0.28 F5000.0 
G1 X280 Y1.0 Z0.28 F1500.0 E15 
G1 X280 Y1.4 Z0.28 F5000.0 
G1 X100 Y1.4 Z0.28 F1500.0 E30
G92 E0
G1 Z5.0 F3000
SKEW_PROFILE LOAD=SKEW1
G21 ; set units to millimeters
G90 ; use absolute coordinates
M83 ; use relative distances for extrusion
; Filament gcode
M141 S38 ; Start Chanber fan at 38 Deg
M107
;LAYER_CHANGE
;Z:0.3
;HEIGHT:0.3
;BEFORE_LAYER_CHANGE
;0.3
G92 E0

G1 E-1.35 F7200
G1 Z.3 F13800
;AFTER_LAYER_CHANGE
;0.3

SET_FAN_SPEED FAN=Tool_1_partfan SPEED=0.0

; printing object Shape-Box id:0 copy 0
G1 X29.818 Y7.664
G1 Z.3
G1 E1.35 F7200
M204 S1000
;TYPE:Perimeter
;WIDTH:0.6
G1 F2700
G1 X351.875 Y7.664 E19.47119
G1 X351.875 Y151.192 E8.67754
G1 X351.875 Y294.721 E8.6776
G1 X29.818 Y294.721 E19.47119
G1 X29.818 Y7.724 E17.35151
M204 S4500
G1 X29.282 Y7.128 F13800
M204 S1000
G1 F2700
G1 X352.411 Y7.128 E19.53601
G1 X352.411 Y151.192 E8.70994
G1 X352.411 Y295.257 E8.71
G1 X29.282 Y295.257 E19.53601
G1 X29.282 Y7.188 E17.41632
M204 S4500
G1 X28.747 Y6.592 F13800
M204 S1000
;TYPE:External perimeter
G1 F2700
G1 X352.947 Y6.592 E19.60076
G1 X352.947 Y151.192 E8.74235
G1 X352.947 Y295.792 E8.74235
G1 X28.747 Y295.792 E19.60076
G1 X28.747 Y6.652 E17.48107
M204 S4500
G1 E-.945 F7200
;WIPE_START
G1 F11040
G1 X28.747 Y6.592 E-.03717
G1 X29.341 Y6.592 E-.36783
;WIPE_END
G1 X115.275 Y6.929 Z1.8 F13800
G1 X350.605 Y7.851
G1 Z.3
G1 E1.35 F7200
M204 S1000
;TYPE:Solid infill
;WIDTH:0.60019
G1 F2700
G1 X351.447 Y8.693 E.07202
G1 X351.447 Y9.451 E.04584
G1 X350.088 Y8.092 E.11624
G1 X349.33 Y8.092 E.04584
G1 X351.447 Y10.209 E.18107
G1 X351.447 Y10.966 E.04578
G1 X348.573 Y8.092 E.24582
G1 X347.815 Y8.092 E.04584
G1 X351.447 Y11.724 E.31065
G1 X351.447 Y12.482 E.04584
G1 X347.057 Y8.092 E.37549
G1 X346.299 Y8.092 E.04584
G1 X351.447 Y13.24 E.44032
G1 X351.447 Y13.997 E.04578
G1 X345.542 Y8.092 E.50507
G1 X344.784 Y8.092 E.04584
G1 X351.447 Y14.755 E.5699
G1 X351.447 Y15.513 E.04584
G1 X344.026 Y8.092 E.63473
G1 X343.268 Y8.092 E.04584
G1 X351.447 Y16.271 E.69957
G1 X351.447 Y17.028 E.04578
G1 X342.511 Y8.092 E.76431
G1 X341.753 Y8.092 E.04584
G1 X351.447 Y17.786 E.82915
G1 X351.447 Y18.544 E.04584
G1 X340.995 Y8.092 E.89398
G1 X340.237 Y8.092 E.04584
G1 X351.447 Y19.302 E.95881
G1 X351.447 Y20.059 E.04578
G1 X339.48 Y8.092 E1.02356
G1 X338.722 Y8.092 E.04584
G1 X351.447 Y20.817 E1.0884
G1 X351.447 Y21.575 E.04584
G1 X337.964 Y8.092 E1.15323
G1 X337.206 Y8.092 E.04584
G1 X351.447 Y22.333 E1.21806
G1 X351.447 Y23.09 E.04578
G1 X336.449 Y8.092 E1.28281
G1 X335.691 Y8.092 E.04584
G1 X351.447 Y23.848 E1.34764
G1 X351.447 Y24.606 E.04584
G1 X334.933 Y8.092 E1.41248
G1 X334.175 Y8.092 E.04584
G1 X351.447 Y25.364 E1.47731
G1 X351.447 Y26.121 E.04578
G1 X333.418 Y8.092 E1.54206
G1 X332.66 Y8.092 E.04584
G1 X351.447 Y26.879 E1.60689
G1 X351.447 Y27.637 E.04584
G1 X331.902 Y8.092 E1.67172
G1 X331.144 Y8.092 E.04584
G1 X351.447 Y28.395 E1.73656
G1 X351.447 Y29.152 E.04578
G1 X330.387 Y8.092 E1.8013
G1 X329.629 Y8.092 E.04584
G1 X351.447 Y29.91 E1.86614
G1 X351.447 Y30.668 E.04584
G1 X328.871 Y8.092 E1.93097
G1 X328.113 Y8.092 E.04584
G1 X351.447 Y31.426 E1.9958
G1 X351.447 Y32.183 E.04578
G1 X327.356 Y8.092 E2.06055
G1 X326.598 Y8.092 E.04584
G1 X351.447 Y32.941 E2.12539
G1 X351.447 Y33.699 E.04584
G1 X325.84 Y8.092 E2.19022
G1 X325.082 Y8.092 E.04584
G1 X351.447 Y34.457 E2.25505
G1 X351.447 Y35.214 E.04578
G1 X324.325 Y8.092 E2.3198
G1 X323.567 Y8.092 E.04584
G1 X351.447 Y35.972 E2.38463
G1 X351.447 Y36.73 E.04584
G1 X322.809 Y8.092 E2.44947
G1 X322.051 Y8.092 E.04584
G1 X351.447 Y37.488 E2.5143
G1 X351.447 Y38.245 E.04578
G1 X321.294 Y8.092 E2.57905
G1 X320.536 Y8.092 E.04584
G1 X351.447 Y39.003 E2.64388
G1 X351.447 Y39.761 E.04584
G1 X319.778 Y8.092 E2.70871
G1 X319.02 Y8.092 E.04584
G1 X351.447 Y40.519 E2.77355
G1 X351.447 Y41.276 E.04578
G1 X318.263 Y8.092 E2.8383
G1 X317.505 Y8.092 E.04584
G1 X351.447 Y42.034 E2.90313
G1 X351.447 Y42.792 E.04584
G1 X316.747 Y8.092 E2.96796
G1 X315.989 Y8.092 E.04584
G1 X351.447 Y43.55 E3.03279
G1 X351.447 Y44.307 E.04578
G1 X315.232 Y8.092 E3.09754
G1 X314.474 Y8.092 E.04584
G1 X351.447 Y45.065 E3.16238
G1 X351.447 Y45.823 E.04584
G1 X313.716 Y8.092 E3.22721
G1 X312.958 Y8.092 E.04584
G1 X351.447 Y46.581 E3.29204
G1 X351.447 Y47.338 E.04578
G1 X312.201 Y8.092 E3.35679
G1 X311.443 Y8.092 E.04584
G1 X351.447 Y48.096 E3.42162
G1 X351.447 Y48.854 E.04584
G1 X310.685 Y8.092 E3.48646
G1 X309.927 Y8.092 E.04584
G1 X351.447 Y49.612 E3.55129
G1 X351.447 Y50.369 E.04578
G1 X309.17 Y8.092 E3.61604
G1 X308.412 Y8.092 E.04584
G1 X351.447 Y51.127 E3.68087
G1 X351.447 Y51.885 E.04584
G1 X307.654 Y8.092 E3.7457
G1 X306.896 Y8.092 E.04584
G1 X351.447 Y52.643 E3.81054
G1 X351.447 Y53.4 E.04578
G1 X306.139 Y8.092 E3.87529
G1 X305.381 Y8.092 E.04584
G1 X351.447 Y54.158 E3.94012
G1 X351.447 Y54.916 E.04584
G1 X304.623 Y8.092 E4.00495
G1 X303.865 Y8.092 E.04584
G1 X351.447 Y55.674 E4.06979
G1 X351.447 Y56.431 E.04578
G1 X303.108 Y8.092 E4.13453
G1 X302.35 Y8.092 E.04584
G1 X351.447 Y57.189 E4.19937
G1 X351.447 Y57.947 E.04584
G1 X301.592 Y8.092 E4.2642
G1 X300.834 Y8.092 E.04584
G1 X351.447 Y58.705 E4.32903
G1 X351.447 Y59.462 E.04578
G1 X300.077 Y8.092 E4.39378
G1 X299.319 Y8.092 E.04584
G1 X351.447 Y60.22 E4.45861
G1 X351.447 Y60.978 E.04584
G1 X298.561 Y8.092 E4.52345
G1 X297.804 Y8.092 E.04578
G1 X351.447 Y61.736 E4.58824
G1 X351.447 Y62.493 E.04578
G1 X297.046 Y8.092 E4.65303
G1 X296.288 Y8.092 E.04584
G1 X351.447 Y63.251 E4.71786
G1 X351.447 Y64.009 E.04584
G1 X295.53 Y8.092 E4.78269
G1 X294.773 Y8.092 E.04578
G1 X351.447 Y64.767 E4.84749
G1 X351.447 Y65.524 E.04578
G1 X294.015 Y8.092 E4.91228
G1 X293.257 Y8.092 E.04584
G1 X351.447 Y66.282 E4.97711
G1 X351.447 Y67.04 E.04584
G1 X292.499 Y8.092 E5.04194
G1 X291.742 Y8.092 E.04578
G1 X351.447 Y67.798 E5.10673
G1 X351.447 Y68.555 E.04578
G1 X290.984 Y8.092 E5.17152
G1 X290.226 Y8.092 E.04584
G1 X351.447 Y69.313 E5.23636
G1 X351.447 Y70.071 E.04584
G1 X289.468 Y8.092 E5.30119
G1 X288.711 Y8.092 E.04578
G1 X351.447 Y70.829 E5.36598
G1 X351.447 Y71.586 E.04578
G1 X287.953 Y8.092 E5.43077
G1 X287.195 Y8.092 E.04584
G1 X351.447 Y72.344 E5.4956
G1 X351.447 Y73.102 E.04584
G1 X286.437 Y8.092 E5.56044
G1 X285.68 Y8.092 E.04578
G1 X351.447 Y73.86 E5.62523
G1 X351.447 Y74.617 E.04578
G1 X284.922 Y8.092 E5.69002
G1 X284.164 Y8.092 E.04584
G1 X351.447 Y75.375 E5.75485
G1 X351.447 Y76.133 E.04584
G1 X283.406 Y8.092 E5.81969
G1 X282.649 Y8.092 E.04578
G1 X351.447 Y76.891 E5.88448
G1 X351.447 Y77.648 E.04578
G1 X281.891 Y8.092 E5.94927
G1 X281.133 Y8.092 E.04584
G1 X351.447 Y78.406 E6.0141
G1 X351.447 Y79.164 E.04584
G1 X280.375 Y8.092 E6.07893
G1 X279.618 Y8.092 E.04578
G1 X351.447 Y79.922 E6.14372
G1 X351.447 Y80.679 E.04578
G1 X278.86 Y8.092 E6.20851
G1 X278.102 Y8.092 E.04584
G1 X351.447 Y81.437 E6.27335
G1 X351.447 Y82.195 E.04584
G1 X277.344 Y8.092 E6.33818
G1 X276.587 Y8.092 E.04578
G1 X351.447 Y82.953 E6.40297
G1 X351.447 Y83.71 E.04578
G1 X275.829 Y8.092 E6.46776
G1 X275.071 Y8.092 E.04584
G1 X351.447 Y84.468 E6.53259
G1 X351.447 Y85.226 E.04584
G1 X274.313 Y8.092 E6.59743
G1 X273.556 Y8.092 E.04578
G1 X351.447 Y85.984 E6.66222
G1 X351.447 Y86.741 E.04578
G1 X272.798 Y8.092 E6.72701
G1 X272.04 Y8.092 E.04584
G1 X351.447 Y87.499 E6.79184
G1 X351.447 Y88.257 E.04584
G1 X271.282 Y8.092 E6.85668
G1 X270.525 Y8.092 E.04578
G1 X351.447 Y89.015 E6.92147
G1 X351.447 Y89.772 E.04578
G1 X269.767 Y8.092 E6.98626
G1 X269.009 Y8.092 E.04584
G1 X351.447 Y90.53 E7.05109
G1 X351.447 Y91.288 E.04584
G1 X268.251 Y8.092 E7.11592
G1 X267.494 Y8.092 E.04578
G1 X351.447 Y92.046 E7.18071
G1 X351.447 Y92.803 E.04578
G1 X266.736 Y8.092 E7.2455
G1 X265.978 Y8.092 E.04584
G1 X351.447 Y93.561 E7.31034
G1 X351.447 Y94.319 E.04584
G1 X265.22 Y8.092 E7.37517
G1 X264.463 Y8.092 E.04578
G1 X351.447 Y95.077 E7.43996
G1 X351.447 Y95.834 E.04578
G1 X263.705 Y8.092 E7.50475
G1 X262.947 Y8.092 E.04584
G1 X351.447 Y96.592 E7.56959
G1 X351.447 Y97.35 E.04584
G1 X262.189 Y8.092 E7.63442
G1 X261.432 Y8.092 E.04578
G1 X351.447 Y98.108 E7.69921
G1 X351.447 Y98.865 E.04578
G1 X260.674 Y8.092 E7.764
G1 X259.916 Y8.092 E.04584
G1 X351.447 Y99.623 E7.82883
G1 X351.447 Y100.381 E.04584
G1 X259.158 Y8.092 E7.89367
G1 X258.401 Y8.092 E.04578
G1 X351.447 Y101.139 E7.95846
G1 X351.447 Y101.896 E.04578
G1 X257.643 Y8.092 E8.02325
G1 X256.885 Y8.092 E.04584
G1 X351.447 Y102.654 E8.08808
G1 X351.447 Y103.412 E.04584
G1 X256.127 Y8.092 E8.15291
G1 X255.37 Y8.092 E.04578
G1 X351.447 Y104.17 E8.2177
G1 X351.447 Y104.927 E.04578
G1 X254.612 Y8.092 E8.28249
G1 X253.854 Y8.092 E.04584
G1 X351.447 Y105.685 E8.34733
G1 X351.447 Y106.443 E.04584
G1 X253.096 Y8.092 E8.41216
G1 X252.339 Y8.092 E.04578
G1 X351.447 Y107.201 E8.47695
G1 X351.447 Y107.958 E.04578
G1 X251.581 Y8.092 E8.54174
G1 X250.823 Y8.092 E.04584
G1 X351.447 Y108.716 E8.60658
G1 X351.447 Y109.474 E.04584
G1 X250.065 Y8.092 E8.67141
G1 X249.308 Y8.092 E.04578
G1 X351.447 Y110.232 E8.7362
G1 X351.447 Y110.989 E.04578
G1 X248.55 Y8.092 E8.80099
G1 X247.792 Y8.092 E.04584
G1 X351.447 Y111.747 E8.86582
G1 X351.447 Y112.505 E.04584
G1 X247.034 Y8.092 E8.93066
G1 X246.277 Y8.092 E.04578
G1 X351.447 Y113.263 E8.99545
G1 X351.447 Y114.02 E.04578
G1 X245.519 Y8.092 E9.06024
G1 X244.761 Y8.092 E.04584
G1 X351.447 Y114.778 E9.12507
G1 X351.447 Y115.536 E.04584
G1 X244.003 Y8.092 E9.1899
G1 X243.246 Y8.092 E.04578
G1 X351.447 Y116.294 E9.25469
G1 X351.447 Y117.051 E.04578
G1 X242.488 Y8.092 E9.31949
G1 X241.73 Y8.092 E.04584
G1 X351.447 Y117.809 E9.38432
G1 X351.447 Y118.567 E.04584
G1 X240.972 Y8.092 E9.44915
G1 X240.215 Y8.092 E.04578
G1 X351.447 Y119.325 E9.51394
G1 X351.447 Y120.082 E.04578
G1 X239.457 Y8.092 E9.57873
G1 X238.699 Y8.092 E.04584
G1 X351.447 Y120.84 E9.64357
G1 X351.447 Y121.598 E.04584
G1 X237.941 Y8.092 E9.7084
G1 X237.184 Y8.092 E.04578
G1 X351.447 Y122.355 E9.77315
G1 X351.447 Y123.113 E.04584
G1 X236.426 Y8.092 E9.83798
G1 X235.668 Y8.092 E.04584
G1 X351.447 Y123.871 E9.90281
G1 X351.447 Y124.629 E.04584
G1 X234.91 Y8.092 E9.96765
G1 X234.153 Y8.092 E.04578
G1 X351.447 Y125.386 E10.03239
G1 X351.447 Y126.144 E.04584
G1 X233.395 Y8.092 E10.09723
G1 X232.637 Y8.092 E.04584
G1 X351.447 Y126.902 E10.16206
G1 X351.447 Y127.66 E.04584
G1 X231.879 Y8.092 E10.22689
G1 X231.122 Y8.092 E.04578
G1 X351.447 Y128.417 E10.29164
G1 X351.447 Y129.175 E.04584
G1 X230.364 Y8.092 E10.35648
G1 X229.606 Y8.092 E.04584
G1 X351.447 Y129.933 E10.42131
G1 X351.447 Y130.691 E.04584
G1 X228.848 Y8.092 E10.48614
G1 X228.091 Y8.092 E.04578
G1 X351.447 Y131.448 E10.55089
G1 X351.447 Y132.206 E.04584
G1 X227.333 Y8.092 E10.61572
G1 X226.575 Y8.092 E.04584
G1 X351.447 Y132.964 E10.68056
G1 X351.447 Y133.722 E.04584
G1 X225.817 Y8.092 E10.74539
G1 X225.06 Y8.092 E.04578
G1 X351.447 Y134.479 E10.81014
G1 X351.447 Y135.237 E.04584
G1 X224.302 Y8.092 E10.87497
G1 X223.544 Y8.092 E.04584
G1 X351.447 Y135.995 E10.9398
G1 X351.447 Y136.753 E.04584
G1 X222.786 Y8.092 E11.00464
G1 X222.029 Y8.092 E.04578
G1 X351.447 Y137.51 E11.06939
G1 X351.447 Y138.268 E.04584
G1 X221.271 Y8.092 E11.13422
G1 X220.513 Y8.092 E.04584
G1 X351.447 Y139.026 E11.19905
G1 X351.447 Y139.784 E.04584
G1 X219.755 Y8.092 E11.26389
G1 X218.998 Y8.092 E.04578
G1 X351.447 Y140.541 E11.32863
G1 X351.447 Y141.299 E.04584
G1 X218.24 Y8.092 E11.39347
G1 X217.482 Y8.092 E.04584
G1 X351.447 Y142.057 E11.4583
G1 X351.447 Y142.815 E.04584
G1 X216.724 Y8.092 E11.52313
G1 X215.967 Y8.092 E.04578
G1 X351.447 Y143.572 E11.58788
G1 X351.447 Y144.33 E.04584
G1 X215.209 Y8.092 E11.65271
G1 X214.451 Y8.092 E.04584
G1 X351.447 Y145.088 E11.71755
G1 X351.447 Y145.846 E.04584
G1 X213.693 Y8.092 E11.78238
G1 X212.936 Y8.092 E.04578
G1 X351.447 Y146.603 E11.84713
G1 X351.447 Y147.361 E.04584
G1 X212.178 Y8.092 E11.91196
G1 X211.42 Y8.092 E.04584
G1 X351.447 Y148.119 E11.97679
G1 X351.447 Y148.877 E.04584
G1 X210.662 Y8.092 E12.04163
G1 X209.905 Y8.092 E.04578
G1 X351.447 Y149.634 E12.10638
G1 X351.447 Y150.392 E.04584
G1 X209.147 Y8.092 E12.17121
G1 X208.389 Y8.092 E.04584
G1 X351.447 Y151.15 E12.23604
G1 X351.447 Y151.908 E.04584
G1 X207.631 Y8.092 E12.30088
G1 X206.874 Y8.092 E.04578
G1 X351.447 Y152.665 E12.36562
G1 X351.447 Y153.423 E.04584
G1 X206.116 Y8.092 E12.43046
G1 X205.358 Y8.092 E.04584
G1 X351.447 Y154.181 E12.49529
G1 X351.447 Y154.939 E.04584
G1 X204.6 Y8.092 E12.56012
G1 X203.843 Y8.092 E.04578
G1 X351.447 Y155.696 E12.62487
G1 X351.447 Y156.454 E.04584
G1 X203.085 Y8.092 E12.6897
G1 X202.327 Y8.092 E.04584
G1 X351.447 Y157.212 E12.75454
G1 X351.447 Y157.97 E.04584
G1 X201.569 Y8.092 E12.81937
G1 X200.812 Y8.092 E.04578
G1 X351.447 Y158.727 E12.88412
G1 X351.447 Y159.485 E.04584
G1 X200.054 Y8.092 E12.94895
G1 X199.296 Y8.092 E.04584
G1 X351.447 Y160.243 E13.01379
G1 X351.447 Y161.001 E.04584
G1 X198.538 Y8.092 E13.07862
G1 X197.781 Y8.092 E.04578
G1 X351.447 Y161.758 E13.14337
G1 X351.447 Y162.516 E.04584
G1 X197.023 Y8.092 E13.2082
G1 X196.265 Y8.092 E.04584
G1 X351.447 Y163.274 E13.27303
G1 X351.447 Y164.032 E.04584
G1 X195.507 Y8.092 E13.33787
G1 X194.75 Y8.092 E.04578
G1 X351.447 Y164.789 E13.40261
G1 X351.447 Y165.547 E.04584
G1 X193.992 Y8.092 E13.46745
G1 X193.234 Y8.092 E.04584
G1 X351.447 Y166.305 E13.53228
G1 X351.447 Y167.063 E.04584
G1 X192.476 Y8.092 E13.59711
G1 X191.719 Y8.092 E.04578
G1 X351.447 Y167.82 E13.66186
G1 X351.447 Y168.578 E.04584
G1 X190.961 Y8.092 E13.72669
G1 X190.203 Y8.092 E.04584
G1 X351.447 Y169.336 E13.79153
G1 X351.447 Y170.094 E.04584
G1 X189.445 Y8.092 E13.85636
G1 X188.688 Y8.092 E.04578
G1 X351.447 Y170.851 E13.92111
G1 X351.447 Y171.609 E.04584
G1 X187.93 Y8.092 E13.98594
G1 X187.172 Y8.092 E.04584
G1 X351.447 Y172.367 E14.05078
G1 X351.447 Y173.125 E.04584
G1 X186.414 Y8.092 E14.11561
G1 X185.657 Y8.092 E.04578
G1 X351.447 Y173.882 E14.18036
G1 X351.447 Y174.64 E.04584
G1 X184.899 Y8.092 E14.24519
G1 X184.141 Y8.092 E.04584
G1 X351.447 Y175.398 E14.31002
G1 X351.447 Y176.156 E.04584
G1 X183.384 Y8.092 E14.37481
G1 X182.626 Y8.092 E.04584
G1 X351.447 Y176.913 E14.4396
G1 X351.447 Y177.671 E.04584
G1 X181.868 Y8.092 E14.50444
G1 X181.11 Y8.092 E.04584
G1 X351.447 Y178.429 E14.56927
G1 X351.447 Y179.187 E.04584
G1 X180.353 Y8.092 E14.63406
G1 X179.595 Y8.092 E.04584
G1 X351.447 Y179.944 E14.69885
G1 X351.447 Y180.702 E.04584
G1 X178.837 Y8.092 E14.76368
G1 X178.079 Y8.092 E.04584
G1 X351.447 Y181.46 E14.82852
G1 X351.447 Y182.218 E.04584
G1 X177.322 Y8.092 E14.89331
G1 X176.564 Y8.092 E.04584
G1 X351.447 Y182.975 E14.9581
G1 X351.447 Y183.733 E.04584
G1 X175.806 Y8.092 E15.02293
G1 X175.048 Y8.092 E.04584
G1 X351.447 Y184.491 E15.08777
G1 X351.447 Y185.249 E.04584
G1 X174.291 Y8.092 E15.15256
G1 X173.533 Y8.092 E.04584
G1 X351.447 Y186.006 E15.21735
G1 X351.447 Y186.764 E.04584
G1 X172.775 Y8.092 E15.28218
G1 X172.017 Y8.092 E.04584
G1 X351.447 Y187.522 E15.34701
G1 X351.447 Y188.28 E.04584
G1 X171.26 Y8.092 E15.4118
G1 X170.502 Y8.092 E.04584
G1 X351.447 Y189.037 E15.47659
G1 X351.447 Y189.795 E.04584
G1 X169.744 Y8.092 E15.54143
G1 X168.986 Y8.092 E.04584
G1 X351.447 Y190.553 E15.60626
G1 X351.447 Y191.311 E.04584
G1 X168.229 Y8.092 E15.67105
G1 X167.471 Y8.092 E.04584
G1 X351.447 Y192.068 E15.73584
G1 X351.447 Y192.826 E.04584
G1 X166.713 Y8.092 E15.80068
G1 X165.955 Y8.092 E.04584
G1 X351.447 Y193.584 E15.86551
G1 X351.447 Y194.342 E.04584
G1 X165.198 Y8.092 E15.9303
